!!!COM:	Obrecht, Jacob
!!!CDT:	1458-1505/07/
!!!OTL:	Inter preclarissimas virtutes
!!!AGN:	Motet
!!!SCT:	Obr2012
!!!SCA:	Obr2012
!!!voices:	4
**kern	**kern	**kern	**kern
*staff4	*staff3	*staff2	*staff1
*Ivox	*Ivox	*Ivox	*Ivox
*I"Bassus	*I"Tenor	*I"Altus	*I"Discantus
*I'B	*I'T	*I'A	*I'D
*>[A,B,C]	*>[A,B,C]	*>[A,B,C]	*>[A,B,C]
*>A	*>A	*>A	*>A
*clefF4	*clefGv2	*clefGv2	*clefG2
*k[b-]	*k[b-]	*k[b-]	*k[b-]
*M2/1	*M2/1	*M2/1	*M2/1
*met(C|)	*met(O.)	*met(C|)	*met(C|)
!!primary-mensuration: met(C|)
!!section: Prima pars: Inter preclarissimas virtutes/Estote fortes
!!!OMD: Prima pars: Inter preclarissimas virtutes/Estote fortes
!!incipit: 6
=1-	=1-	=1-	=1-
*	*rscale:1/6	*	*
!	!LO:N:vis=1.	!	!
0GG	0r	0G	0g
=2	=2-	=2	=2
0GG	0ryy	0G	0g
=3	=3-	=3	=3
0D	0ryy	0A	0f
=4	=4-	=4	=4
!	!LO:N:vis=1.	!	!
1D	0r	1A	1f
[1D	.	[1A	[1f
=5	=5-	=5	=5
1D]	0ryy	1A]	1f]
1D	.	1A	1f
=6	=6-	=6	=6
0GG	0ryy	0G	0b-
=7	=7-	=7	=7
!	!LO:N:vis=1.	!	!
1GG	0r	1G	1b-
[1GG	.	[1G	[1b-
=8	=8-	=8	=8
1GG]	0ryy	1G]	1b-]
1D	.	1F	1a
=9	=9-	=9	=9
0E-	0ryy	1B-	0g
.	.	1c	.
=10	=10	=10	=10
!	!LO:N:vis=1.	!	!
0D	0r	0d	0f
=11	=11-	=11	=11
1r	0ryy	1r	1r
1D	.	1d	1f
=12	=12-	=12	=12
0E-i	0ryy	0B-	0g
=13	=13-	=13	=13
!	!LO:N:vis=1.	!	!
1E-i	0r	1B-	1g
1E-i	.	1G	1g
=14	=14-	=14	=14
1.D	0ryy	1.F	1.a
2D\	.	2F/	2a/
=15	=15-	=15	=15
1D	0ryy	1F	1a
1G	.	1G	[1b-
=16	=16-	=16	=16
!	!LO:N:vis=1.	!	!
0F	0r	0A	1b-]
.	.	.	[1a
=17	=17-	=17	=17
0G	0ryy	0B-	1a]
.	.	.	1g
=18	=18-	=18	=18
1F	0ryy	1A	1a
2r	.	2r	2r
[2F\	.	[2c\	[2a/
=19	=19	=19	=19
!	!LO:N:vis=1.	!	!
2F\]	0r	2c\]	2a/]
2F\	.	2c\	2a/
1F	.	1c	1a
=20	=20-	=20	=20
1BB-	0ryy	1d	1b-
1F	.	2c\	1a
.	.	2d\	.
=21	=21-	=21	=21
2G\	0ryy	2e\	2g/
2F\	.	2.f\	2a/
1B-	.	.	1d
.	.	4e\	.
.	.	[2d\	.
=22	=22-	=22	=22
!	!LO:N:vis=1.	!	!
1A	0r	2d\]	1e
.	.	2c#i\	.
1D	.	1d	1d
=23	=23-	=23	=23
2r	0ryy	2r	2r
2G\	.	2B-\	2d/
2E\	.	2c\	2e/
2D\	.	2d\	2f/
=24	=24-	=24	=24
2E\	0ryy	1B-	1g
2G\	.	.	.
2F\	.	2c\	2a/
2D\	.	2d\	2f/
=25	=25-	=25	=25
!	!LO:N:vis=1.	!	!
2G\	0r	2d\	2b-\
1G	.	1d	1b-
2G\	.	2d\	2b-\
=26	=26-	=26	=26
2.G\	0ryy	2.B-\	1b-
8F\L	.	4c\	.
8E\J	.	.	.
2D\	.	2d\	2b-\
[2F\	.	[2c\	[2a/
=27	=27-	=27	=27
2F\]	0ryy	2c\]	2a/]
2G\	.	2B-\	1g
1D	.	1A	.
.	.	.	2f#i/
=28	=28	=28	=28
!	!LO:N:vis=1.	!	!
1GG	[y0B-	1G	1g
1GG	.	1d	2r
.	.	.	[2b-\
=29	=29-	=29	=29
1G	0B-_yy	1d	2b-\]
.	.	.	1b-
1G	.	1d	.
.	.	.	2b-\
=30	=30-	=30	=30
1.E-i	0B-]yy	1.e-	1.g
2E-i\	.	2e-\	2g/
=31	=31-	=31	=31
!	!LO:N:vis=1.	!	!
[0D	[y0d	2A/	1f
.	.	1B-	.
.	.	.	1b-
.	.	4A/	.
.	.	4G/	.
=32	=32-	=32	=32
0D]	0d_yy	1F	2a/
.	.	.	2b-\
.	.	1f	2a/
.	.	.	[2dd\
=33	=33-	=33	=33
0G	0d]yy	0g	4dd\]
.	.	.	4cc\
.	.	.	4bni\
.	.	.	4a/
.	.	.	1bni
=34	=34-	=34	=34
!	!LO:N:vis=1.	!	!
0C	[y0c	0e	1cc
.	.	.	2r
.	.	.	2cc\
=35	=35-	=35	=35
1F	0c_yy	1f	2cc\
.	.	.	2cc\
1F	.	1f	1a
=36	=36-	=36	=36
1E	0c]yy	1g	1g
1A	.	1e	1cc
=37	=37	=37	=37
!	!LO:N:vis=1.	!	!
2F\	[y0d	1f	2a/
1B-	.	.	1dd
.	.	2.d\	.
4A\	.	.	4cc\
4G\	.	4e\	4b-\
=38	=38-	=38	=38
2F\	0d_yy	2f\	2a/
1G	.	2.B-\	1b-
.	.	4c\	.
4F\	.	4d\	4a/
4E\	.	4e\	4g/
=39	=39-	=39	=39
1D	0d]yy	2f\	1f
.	.	2.d\	.
1BB-	.	.	2r
.	.	4c\	.
.	.	4B-\	2d/
.	.	4A/	.
=40	=40-	=40	=40
!	!LO:N:vis=1.	!	!
1C	[y0c	2G/	1e
.	.	2.g\	.
[1C	.	.	1e
.	.	4f\	.
.	.	[2e\	.
=41	=41-	=41	=41
2C/]	0c_yy	4e\]	2e/
.	.	4d\	.
1F	.	4c\	1a
.	.	4B-\	.
.	.	1A	.
4E\	.	.	4g/
4D\	.	.	4f/
=42	=42-	=42	=42
1C	0c]yy	1G	1e
1F	.	1A	1a
=43	=43-	=43	=43
!	!LO:N:vis=1.	!	!
0BB-	[y0B-	2F/	1d
.	.	1G	.
.	.	.	1r
.	.	4F/	.
.	.	4E/	.
=44	=44-	=44	=44
1BB-	0B-_yy	1D	1d
1BB-	.	2r	2d/
.	.	[2G/	2d/
=45	=45-	=45	=45
1E	0B-]yy	2G/]	1g
.	.	4F/	.
.	.	4E/	.
1D	.	1F	1f
=46	=46	=46	=46
!	!LO:N:vis=1.	!	!
1C	[y0c	0G	1e
1C	.	.	1r
=47	=47-	=47	=47
1F	0c_yy	2r	1a
.	.	2.A/	.
1F	.	.	2a/
.	.	4B-\	.
.	.	4c\	[2a/
.	.	4d\	.
=48	=48-	=48	=48
1C	0c]yy	1e	2a/]
.	.	.	2g/
1F	.	1f	1a
=49	=49-	=49	=49
2.G\	0B-	1d	2.b-\
4F\	.	.	4a/
4E-i\	.	2r	4g/
4D\	.	.	4f/
[2E-i\	.	[2G/	[2g/
=50	=50-	=50	=50
!	!LO:N:vis=1	!	!
2E-\]	[y0G	4G/]	2g/]
.	.	4A/	.
4D\	.	4B-\	4f/
4C/	.	4c\	4e/
1BB-	.	1d	2d/
.	.	.	[2dd\
=51	=51-	=51	=51
0GG	0G]yy	1d	4dd\]
.	.	.	4cc\
.	.	.	1b-
.	.	[1d	.
.	.	.	4a/
.	.	.	4g/
=52	=52-	=52	=52
!	!LO:N:vis=1.	!	!
1D	[y0A	1d]	2f/
.	.	.	2f/
1C	.	1e	2e/
.	.	.	2e/
=53	=53-	=53	=53
1D	0A_yy	1d	2f/
.	.	.	2f/
1C	.	1e	2e/
.	.	.	[2a/
=54	=54-	=54	=54
0D	0A]yy	0d	2a/]
.	.	.	1g
.	.	.	2f#i/
=55	=55	=55	=55
*	*M2/1	*	*
*	*met(C.)	*	*
!	!LO:N:vis=1.	!	!
[0GG	0r	2.B-\	0g
.	.	4c\	.
.	.	2d\	.
.	.	2e-i\	.
=56	=56-	=56	=56
0GG]	0ryy	2d\	0r
.	.	1e-i	.
.	.	4d\	.
.	.	4c\	.
=57	=57-	=57	=57
0r	0ryy	1d	0b-
.	.	1d	.
=58	=58-	=58	=58
!	!LO:N:vis=1.	!	!
0r	0r	0e-i	1b-
.	.	.	[1g
=59	=59-	=59	=59
0r	0ryy	0c	1g]
.	.	.	1a
=60	=60-	=60	=60
0r	0ryy	2d\	1f
.	.	1B-	.
.	.	.	1g
.	.	[2c\	.
=61	=61	=61	=61
!	!LO:N:vis=1.	!	!
0r	0r	2c\]	1a
.	.	1d	.
.	.	.	1b-
.	.	4c\	.
.	.	4B-\	.
=62	=62-	=62	=62
0r	0ryy	2.A/	2.cc\
.	.	4B-\	4b-\
.	.	2c\	4a/
.	.	.	4g/
.	.	[2d\	[2b-\
=63	=63-	=63	=63
0r	0ryy	2d\]	2b-\]
.	.	2c\	1a
.	.	1B-	.
.	.	.	2g/
=64	=64-	=64	=64
!	!LO:N:vis=1.	!	!
0D	0r	1A	1a
.	.	2F/	1r
.	.	2B-\	.
=65	=65-	=65	=65
1F	0ryy	2A/	0r
.	.	1d	.
1E	.	.	.
.	.	2c\	.
=66	=66-	=66	=66
0D	0ryy	2d\	0r
.	.	1B-	.
.	.	4A/	.
.	.	4G/	.
=67	=67	=67	=67
!	!LO:N:vis=1.	!	!
1D	0r	1A	0r
[1G	.	1G	.
=68	=68-	=68	=68
1G]	0ryy	0A	0r
1F#i	.	.	.
=69	=69-	=69	=69
0G	0ryy	2G/	0r
.	.	1d	.
.	.	2e\	.
=70	=70-	=70	=70
!	!LO:N:vis=1.	!	!
1F	0r	2c\	0r
.	.	1d	.
1G	.	.	.
.	.	4c\	.
.	.	4B-\	.
=71	=71-	=71	=71
1A	0ryy	2.c\	0r
.	.	4d\	.
2G\	.	2e\	.
2A\	.	[2f\	.
=72	=72-	=72	=72
1D	0ryy	4f\]	0r
.	.	4e\	.
.	.	1d	.
1E	.	.	.
.	.	2c#i\	.
=73	=73	=73	=73
!	!LO:N:vis=1.	!	!
1D	[y0B-	0d	0b-
1r	.	.	.
=74	=74-	=74	=74
1GG	0B-_yy	1d	1b-
2GG/	.	1d	1b-
2GG/	.	.	.
=75	=75-	=75	=75
1GG	0B-]yy	1e-	1g
1G	.	2e-i\	1b-
.	.	2e-i\	.
=76	=76-	=76	=76
!	!LO:N:vis=1.	!	!
1D	[y0d	1f	1a
1D	.	1f	1a
=77	=77-	=77	=77
1.D	0d_yy	1.f	1.a
2D\	.	2f\	2a/
=78	=78-	=78	=78
1D	0d]yy	1d	1f
1F	.	1d	1f
=79	=79	=79	=79
!	!LO:N:vis=1.	!	!
0E	[y0c	0e	1.g
.	.	.	[2e/
=80	=80-	=80	=80
1C	0c_yy	1e	4e/]
.	.	.	4f/
.	.	.	2g/
[1F	.	1f	2c/
.	.	.	[2cc\
=81	=81-	=81	=81
1F]	0c]yy	1F	2cc\]
.	.	.	4b-\
.	.	.	4a/
1E	.	1G	1g
=82	=82-	=82	=82
!	!LO:N:vis=1.	!	!
0D	[y0d	0A	0f
=83	=83-	=83	=83
[0G	0d_yy	1B-	1r
.	.	1B-	[1b-
=84	=84-	=84	=84
0G]	0d]yy	1G	1b-]
.	.	1g	1b-
=85	=85	=85	=85
!	!LO:N:vis=1.	!	!
0A	[y0c	0e	1.cc
.	.	.	2cc\
=86	=86-	=86	=86
1F	0c_yy	1f	1a
1E	.	1g	2g/
.	.	.	[2cc\
=87	=87-	=87	=87
0F	0c]yy	0f	4cc\]
.	.	.	4b-\
.	.	.	4a/
.	.	.	4g/
.	.	.	1a
=88	=88-	=88	=88
!	!LO:N:vis=1.	!	!
1G	[y0B-	1d	1b-
2G\	.	2d\	1r
2G\	.	2d\	.
=89	=89-	=89	=89
1E	0B-_yy	1e	0r
2D\	.	2f\	.
[2G\	.	[2B-\	.
=90	=90-	=90	=90
2G\]	0B-]yy	2B-\]	0r
4F\	.	4A/	.
4E\	.	4G/	.
1D	.	1F	.
=91	=91	=91	=91
!	!LO:N:vis=1.	!	!
[0C	[y0c	0G	1.g
.	.	.	2g/
=92	=92-	=92	=92
0C]	0c_yy	0r	1g
.	.	.	1g
=93	=93-	=93	=93
1E	0c]yy	0r	1g
1F	.	.	1a
=94	=94	=94	=94
2.G\	0B-	0r	1d
4F\	.	.	.
2E-\	.	.	2g/
2D\	.	.	2f/
=95	=95-	=95	=95
!	!LO:N:vis=1	!	!
0E-i	[y0G	0B-	2g/
.	.	.	2.b-\
.	.	.	4a/
.	.	.	[2g/
=96	=96-	=96	=96
1C	0G]yy	1c	2g/]
.	.	.	4f/
.	.	.	4e/
1BB-	.	2d\	1d
.	.	2B-\	.
=97	=97	=97	=97
!	!LO:N:vis=1.	!	!
0AA	[y0A	1c	2c/
.	.	.	2c/
.	.	1c	2f/
.	.	.	2e/
=98	=98-	=98	=98
1D	0A_yy	1F	2.f/
.	.	.	4g/
1C	.	1c	4a/
.	.	.	4b-\
.	.	.	[2cc\
=99	=99-	=99	=99
1AA	0A]yy	1c	4cc\]
.	.	.	4b-\
.	.	.	4a/
.	.	.	4g/
1D	.	1d	1f#i
=100	=100	=100	=100
*	*M3/1	*	*
*	*met(O)	*	*
*	*rscale:1/2	*	*
0GG	0r	1B-	1g
.	.	2r	2r
.	.	[2d\	[2b-\
=101	=101-	=101	=101
0r	0r	2d\]	2b-\]
.	.	2d\	2b-\
.	.	1d	1b-
=102	=102-	=102	=102
0r	0r	1c	2a/
.	.	.	1g
.	.	2B-\	.
.	.	2A/	[2f/
=103	=103	=103	=103
0r	0r	1G	2f/]
.	.	.	2e/
.	.	1F	1f
=104	=104-	=104	=104
1.D	0r	1.B-	0r
2D\	.	2B-\	.
=105	=105-	=105	=105
1D	0r	1B-	0r
1E	.	1c	.
=106	=106	=106	=106
2F\	0r	2A/	0r
2D\	.	1d	.
1E	.	.	.
.	.	2c#i\	.
=107	=107-	=107	=107
1D	0r	1d	1f
1r	.	2r	2f/
.	.	[2B-\	[2f/
=108	=108-	=108	=108
0r	0r	2B-\]	2f/]
.	.	4A/	2.f/
.	.	4G/	.
.	.	2A/	.
.	.	.	4g/
.	.	2F/	2a/
=109	=109	=109	=109
0r	0B-	1G	2g/
.	.	.	1f
.	.	1G	.
.	.	.	2e/
=110	=110-	=110	=110
2.D\	0d	1F	1f
4E\	.	.	.
2F\	.	1r	1r
2G\	.	.	.
=111	=111-	=111	=111
2A\	0c	1r	0r
2.F\	.	.	.
.	.	1f	.
4E\	.	.	.
4D\	.	.	.
4C/	.	.	.
=112	=112	=112	=112
2BB-/	0d	0g	0r
1GG	.	.	.
2G\	.	.	.
=113	=113-	=113	=113
4A\	0c	0f	0r
4G\	.	.	.
4F\	.	.	.
4E\	.	.	.
1F	.	.	.
=114	=114-	=114	=114
1G	0B-	0d	1.dd
1r	.	.	.
.	.	.	4cc\
.	.	.	4b-\
=115	=115	=115	=115
0r	0c	0r	2a/
.	.	.	1g
.	.	.	4f/
.	.	.	4e/
=116	=116-	=116	=116
0r	1B-	0r	2d/
.	.	.	1b-
.	1G	.	.
.	.	.	4a/
.	.	.	4g/
=117	=117-	=117	=117
1r	0A	1r	2f/
.	.	.	1g
1D	.	1d	.
.	.	.	2f#i/
=118	=118	=118	=118
*	*M2/1	*	*
*	*met(C)	*	*
0E-i	0r	2.B-\	[0g
.	.	4A/	.
.	.	2B-\	.
.	.	[2c\	.
=119	=119-	=119	=119
0C	0r	2c\]	1g]
.	.	4B-\	.
.	.	4A/	.
.	.	2G/	1r
.	.	[2c\	.
=120	=120	=120	=120
0F	0r	2c\]	0r
.	.	2.d\	.
.	.	4c\	.
.	.	4B-\	.
.	.	4A/	.
=121	=121-	=121	=121
0E	0r	2G/	0r
.	.	2.c\	.
.	.	4B-\	.
.	.	4A/	.
.	.	4G/	.
=122	=122	=122	=122
0A	0r	2F/	0r
.	.	2.f\	.
.	.	4e\	.
.	.	4d\	.
.	.	4c\	.
=123	=123-	=123	=123
1G	0r	1B-	0r
1F	.	[1A	.
=124	=124	=124	=124
0E-	0B-	1A]	0g
.	.	1G	.
=125	=125-	=125	=125
0D	0d	0A	1f
.	.	.	1f
=126	=126	=126	=126
1r	0c	1F	1a
1E	.	1G	1g
=127	=127-	=127	=127
2.D\	0d	2A/	2.f/
.	.	2.d\	.
4E\	.	.	4g/
2F\	.	.	2a/
.	.	4e\	.
2BB-/	.	[2f\	[2b-\
=128	=128	=128	=128
1F	0c	2f\]	2b-\]
.	.	4e\	4a/
.	.	4d\	4g/
1F	.	2c\	1a
.	.	[2f\	.
=129	=129-	=129	=129
1D	0B-	2f\]	1b-
.	.	2f\	.
2r	.	2d\	1r
[2G\	.	[2B-\	.
=130	=130	=130	=130
2G\]	0c	2B-\]	0r
4F\	.	4A/	.
4E\	.	4G/	.
1F	.	1A	.
=131	=131-	=131	=131
1G	1B-	1G	0r
1E	1G	2r	.
.	.	[2g\	.
=132	=132	=132	=132
0D	0A	2g\]	0r
.	.	4f#i\	.
.	.	4e\	.
.	.	1f#i	.
=133	=133	=133	=133
*	*M2/1	*	*
*	*met(C|)	*	*
0GG	0r	1.g	1.b-
.	.	4f\	4a/
.	.	4e\	4g/
=134	=134	=134	=134
1D	0r	1d	1f
1E	.	1B-	1g
=135	=135	=135	=135
2F\	0r	2A/	2a/
2D\	.	2.d\	2.b-\
1G	.	.	.
.	.	4c\	4a/
.	.	4B-\	4g/
.	.	4A/	4f/
=136	=136	=136	=136
1G	1B-	1B-	1g
1D	1d	2A/	1a
.	.	[2F/	.
=137	=137	=137	=137
1F	1c	4F/]	2r
.	.	4G/	.
.	.	2A/	2a/
2D\	1d	2.B-\	2f/
2BB-/	.	.	[2b-\
.	.	8A/L	.
.	.	8G/J	.
=138	=138	=138	=138
1F	1c	2F/	2b-\]
.	.	1f	2a/
1G	1B-	.	2b-\
.	.	2e\	2g/
=139	=139	=139	=139
1F	1c	1f	4a/
.	.	.	4g/
.	.	.	4f/
.	.	.	4e/
2G\	2B-\	2r	2d/
2E\	2G/	2c\	[2g/
=140	=140	=140	=140
1D	1A	1d	2g/]
.	.	.	2f/
1E-i	[1Gl	1B-	1g
=141	=141	=141	=141
0C	0G_	0c	0e-i
=142	=142	=142	=142
0GGl	0G]	0B-l	0dl
*	*rscale:1	*	*
!!LO:LB:i:g=z
=143||	=143||	=143||	=143||
*>B	*>B	*>B	*>B
*clefF4	*clefGv2	*clefGv2	*clefG2
*k[b-]	*k[b-]	*k[b-]	*k[b-]
*M2/1	*M2/1	*M2/1	*M2/1
*met(O)	*met(O)	*met(O)	*met(O)
*	*rscale:1/2	*	*
!!section: Secunda pars: Eya, propter tuam paternitatem
!!!OMD: Secunda pars: Eya, propter tuam paternitatem
0D	0r	0A	0f
=144	=144-	=144	=144
0D	0r	0A	0f
=145	=145-	=145	=145
0D	0r	0A	0f
=146	=146	=146	=146
0GG;	0r	0B-;	0d;
=147	=147-	=147	=147
1D	0r	1A	1f
2D\	.	2A/	2f/
2D\	.	2A/	2f/
=148	=148-	=148	=148
2G\	0r	2B-\	2g/
2G\	.	2B-\	2g/
1F	.	1c	1a
=149	=149	=149	=149
1D	0r	1d	1f
1G	.	1d	1b-
=150	=150-	=150	=150
2G\	0r	2d\	2b-\
2G\	.	2d\	2b-\
1F	.	1d	1a
=151	=151-	=151	=151
1E	0r	1e	1g
1A	.	1f	1cc
=152	=152	=152	=152
1G	0r	1g	1b-
1F	.	1c	1a
=153	=153-	=153	=153
1G	0r	1B-	1dd
1C	.	1A	1cc
=154	=154-	=154	=154
1G	0r	1B-	1b-
2F\	.	2c\	2a/
2E\	.	2c\	2g/
=155	=155	=155	=155
1D	0r	1d	1f
1A	.	1c	1cc
=156	=156-	=156	=156
2D\	0r	1d	2b-\
1F	.	.	1a
.	.	2c\	.
2G\	.	2B-\	2g/
=157	=157-	=157	=157
2D\	0r	2A/	2f/
2E\	.	2G/	1g
1D	.	1A	.
.	.	.	2f#i/
=158	=158	=158	=158
1E-i	0r	1.G	0g
2r	.	.	.
[2E-i\	.	2A/	.
=159	=159-	=159	=159
2E-\]	0r	2B-\	1r
4D\	.	2c\	.
4C/	.	.	.
1BB-	.	1d	[1b-
=160	=160-	=160	=160
1GG	0r	1e	1b-]
[1G	.	2d\	1b-
.	.	[2g\	.
=161	=161	=161	=161
0G]	0r	4g\]	1b-
.	.	4f\	.
.	.	4e\	.
.	.	4d\	.
.	.	1e	1b-
=162	=162-	=162	=162
1F	0r	1f	1a
2r	.	2r	2r
2F\	.	2f\	2a/
=163	=163-	=163	=163
2G\	0r	2d\	2b-\
2E\	.	2e\	2g/
1F	.	1c	1a
=164	=164	=164	=164
1.D	0r	1d	1f
.	.	2r	2r
2BB-/	.	[2d\	[2b-\
=165	=165-	=165	=165
1E-i	0r	2d\]	2b-\]
.	.	2c\	4a/
.	.	.	4g/
2D\	.	2.d\	2b-\
[2F\	.	.	[2a/
.	.	4c\	.
=166	=166-	=166	=166
2F\]	0r	2B-\	2a/]
2E\	.	2G/	1g
1D	.	1A	.
.	.	.	2f#i/
=167	=167	=167	=167
!	!LO:N:vis=0.	!	!
0GG	[y0B-	0G	0g
=168	=168-	=168	=168
1r	0B-_yy	0d	1r
1G	.	.	1g
=169	=169-	=169	=169
1E-i	0B-]yy	0e-i	0g
1E-i	.	.	.
=170	=170	=170	=170
!	!LO:N:vis=0.	!	!
1D	[y0d	1f	1f
[1GG	.	[1g	[1b-
=171	=171-	=171	=171
2GG/]	0d_yy	2g\]	2b-\]
2GG/	.	2g\	2b-\
1GG	.	1g	1b-
=172	=172-	=172	=172
1D	0d]yy	1f	1a
1BB-	.	1g	1b-
=173	=173	=173	=173
!	!LO:N:vis=0.	!	!
1AA	[y0c	1.e	1.cc
1A	.	.	.
.	.	2e\	2cc\
=174	=174-	=174	=174
1F	0c_yy	1f	1a
[1E	.	2g\	1g
.	.	4f\	.
.	.	4e\	.
=175	=175-	=175	=175
1E]	0c]yy	2c\	1r
.	.	4B-\	.
.	.	4A/	.
1E	.	1G	1g
=176	=176	=176	=176
!	!LO:N:vis=0.	!	!
0D	[y0d	2A/	2.f/
.	.	2.d\	.
.	.	.	4g/
.	.	.	2a/
.	.	4e\	.
.	.	2f\	[2b-\
=177	=177-	=177	=177
1G	0d_yy	1g	2b-\]
.	.	.	4a/
.	.	.	4g/
1F	.	1a	2a/
.	.	.	[2dd\
=178	=178-	=178	=178
0G	0d]yy	0g	4dd\]
.	.	.	4cc\
.	.	.	4bni\
.	.	.	4a/
.	.	.	1bni
=179	=179	=179	=179
!	!LO:N:vis=0.	!	!
0C	[y0c	0e	0cc
=180	=180-	=180	=180
1r	0c_yy	1r	1r
1E	.	1e	1g
=181	=181-	=181	=181
1E	0c]yy	1g	1g
1F	.	1f	1a
=182	=182	=182	=182
!	!LO:N:vis=0.	!	!
0G	[y0B-	0d	0b-
=183	=183-	=183	=183
0E	0B-_yy	0e	0g
=184	=184-	=184	=184
0D	0B-]yy	2f\	0f
.	.	2.d\	.
.	.	4c\	.
.	.	4B-\	.
.	.	4A/	.
=185	=185	=185	=185
!	!LO:N:vis=0.	!	!
1r	[y0c	1A	1r
1C	.	1G	1e
=186	=186-	=186	=186
0C	0c_yy	0G	0e
=187	=187-	=187	=187
1C	0c]yy	1G	1e
2C/	.	2A/	2e/
2C/	.	2A/	2e/
=188	=188	=188	=188
2G\	0B-	2B-\	2d/
2G\	.	2B-\	2d/
1D	.	1d	1f
=189	=189-	=189	=189
!	!LO:N:vis=0	!	!
1.E-i	[y0G	1B-	2g/
.	.	.	2.b-\
.	.	1B-	.
.	.	.	4a/
2D\	.	.	[2g/
=190	=190-	=190	=190
1C	0G]yy	1c	2g/]
.	.	.	4f/
.	.	.	4e/
1BB-	.	2d\	1d
.	.	2B-\	.
=191	=191	=191	=191
!	!LO:N:vis=0.	!	!
1.AA	[y0A	1c	1.c
.	.	1r	.
2BB-/	.	.	2d/
=192	=192-	=192	=192
2C/	0A_yy	2c\	2e/
2D\	.	2F/	2f/
2C/	.	1c	2e/
[2F\	.	.	[2a/
=193	=193-	=193	=193
4F\]	0A]yy	0d	4a/]
4E\	.	.	4g/
4D\	.	.	4f#i/
4C/	.	.	4e/
1D	.	.	1f#i
=194	=194	=194	=194
*	*M2/1	*	*
*	*met(C)	*	*
1.E-i	0r	1.B-	0g
4D\	.	2c\	.
4C/	.	.	.
=195	=195-	=195	=195
2BB-/	0r	2d\	0r
1C	.	1e-	.
4BB-/	.	4d\	.
4AA/	.	4c\	.
=196	=196	=196	=196
2GG/	0r	2B-\	0dd
1G	.	2.B-\	.
.	.	4c\	.
4F\	.	4d\	.
4E\	.	4e\	.
=197	=197-	=197	=197
1D	0r	4f\	0dd
.	.	4e\	.
.	.	4d\	.
.	.	4c\	.
1G	.	1B-	.
=198	=198	=198	=198
1A	0r	2.c\	1cc
.	.	4d\	.
1A	.	2e\	1cc
.	.	2f\	.
=199	=199-	=199	=199
0G	0r	2.g\	0b-
.	.	8f\L	.
.	.	8e\J	.
.	.	1d	.
=200	=200	=200	=200
0C	0r	1c	1cc
.	.	2A/	1cc
.	.	[2c\	.
=201	=201-	=201	=201
1C	0r	4c\]	0cc
.	.	4B-\	.
.	.	4A/	.
.	.	4G/	.
1C	.	1A	.
=202	=202	=202	=202
0BB-	0r	[0B-	1dd
.	.	.	1dd
=203	=203-	=203	=203
0E-i	0r	0B-]	0g
=204	=204	=204	=204
0E-i	0r	0c	1r
.	.	.	1g
=205	=205-	=205	=205
0F	0r	2.A/	0a
.	.	4B-\	.
.	.	2c\	.
.	.	[2d\	.
=206	=206	=206	=206
1D	0r	2d\]	1a
.	.	4c\	.
.	.	4B-\	.
1F	.	2A/	1a
.	.	[2c\	.
=207	=207-	=207	=207
0E-i	0r	2c\]	0g
.	.	4B-\	.
.	.	4A/	.
.	.	4G/	.
.	.	4A/	.
.	.	4B-\	.
.	.	4c\	.
=208	=208	=208	=208
1D	0r	2d\	1f
.	.	1B-	.
1BB-	.	.	1d
.	.	4A/	.
.	.	4G/	.
=209	=209-	=209	=209
0C	0r	2A/	0e-i
.	.	1B-	.
.	.	2A/	.
=210	=210	=210	=210
!	!LO:N:vis=0	!	!
0BB-	[y0B-	0B-	0d
=211	=211-	=211	=211
1r	0B-]yy	1r	1r
[1BB-	.	[1B-	[1f
=212	=212	=212	=212
!	!LO:N:vis=0	!	!
1BB-]	[y0d	1B-]	1f]
1BB-	.	1B-	1f
=213	=213-	=213	=213
0BB-	0d]yy	1F	0f
.	.	1B-	.
=214	=214	=214	=214
!	!LO:N:vis=0	!	!
0C	[y0c	0A	0r
=215	=215-	=215	=215
0E-i	0c]yy	0G	0g
=216	=216	=216	=216
!	!LO:N:vis=0	!	!
0D	[y0d	0A	1f
.	.	.	1f
=217	=217-	=217	=217
0r	0d]yy	0r	1b-
.	.	.	2a/
.	.	.	2b-\
=218	=218	=218	=218
!	!LO:N:vis=0	!	!
0r	[y0c	0r	2.cc\
.	.	.	4b-\
.	.	.	4a/
.	.	.	4g/
.	.	.	[2cc\
=219	=219-	=219	=219
1r	0c]yy	1r	4cc\]
.	.	.	4b-\
.	.	.	4a/
.	.	.	4g/
1F	.	1f	1a
=220	=220	=220	=220
!	!LO:N:vis=0	!	!
1.G	[y0B-	1.d	0b-
2G\	.	2d\	.
=221	=221-	=221	=221
0G	0B-]yy	0d	0r
=222	=222	=222	=222
!	!LO:N:vis=0	!	!
0E	[y0c	0g	0r
=223	=223-	=223	=223
1F	0c]yy	0f	0r
1F	.	.	.
=224	=224	=224	=224
0G	0B-	0d	1dd
.	.	.	2dd\
.	.	.	[2b-\
=225	=225-	=225	=225
0r	0G	0r	2b-\]
.	.	.	2b-\
.	.	.	1b-
=226	=226	=226	=226
!	!LO:N:vis=0	!	!
0r	[y0A	0r	2.a/
.	.	.	4b-\
.	.	.	2cc\
.	.	.	[2a/
=227	=227-	=227	=227
0D	0A]yy	0d	4a/]
.	.	.	4g/
.	.	.	4f#i/
.	.	.	4e/
.	.	.	1f#i
*	*rscale:1	*	*
=228	=228	=228	=228
*	*M2/1	*	*
*	*met(C|)	*	*
1E-i	0r	1B-	0g
1E-i	.	1B-	.
=229	=229	=229	=229
0E-i	0r	0c	0r
=230	=230	=230	=230
0C	0r	0e-i	0r
=231	=231	=231	=231
1F	0r	1d	0r
2F\	.	2d\	.
[2F\	.	[2d\	.
=232	=232	=232	=232
2F\]	0r	2d\]	0r
2E\	.	1c	.
1D	.	.	.
.	.	2Bni\	.
=233	=233	=233	=233
1C	0r	1c	0r
1D	.	2B-\	.
.	.	[2A/	.
=234	=234	=234	=234
1C	0r	4A/]	0r
.	.	4G/	.
.	.	4F/	.
.	.	4E/	.
1BB-	.	2D/	.
.	.	[2G/	.
=235	=235	=235	=235
0AA	0r	2G/]	0r
.	.	4F#i/	.
.	.	4E/	.
.	.	1F#i	.
=236	=236	=236	=236
0GG	0B-	0G	0b-
=237	=237	=237	=237
0r	0d	1F	1a
.	.	1G	1b-
=238	=238	=238	=238
0AA	0c	0A	0cc
=239	=239	=239	=239
1BB-	0d	1D	0f
1D	.	1F	.
=240	=240	=240	=240
1E	0c	2E/	1g
.	.	2G/	.
1F	.	2F/	1a
.	.	2A/	.
=241	=241	=241	=241
2.G\	0B-	1G	2.b-\
4F\	.	.	4a/
2E\	.	2r	2g/
2D\	.	2A/	2f/
=242	=242	=242	=242
1.C	0c	2.c\	2.e/
.	.	4d\	4f/
.	.	2e\	2g/
4BB-/	.	2c\	2a/
4AA/	.	.	.
=243	=243	=243	=243
0GG	1B-	1d	2b-\
.	.	.	1g
.	1G	2d\	.
.	.	[2d\	4f/
.	.	.	4e/
=244	=244	=244	=244
0D	0A	2d\]	2f/
.	.	4c\	1g
.	.	4B-\	.
.	.	2A/	.
.	.	2d\	2f#i/
=245	=245	=245	=245
1r	0r	1B-	0g
[1E-	.	[1c	.
=246	=246	=246	=246
2E-\]	0r	2c\]	0r
2E-\	.	2c\	.
2E-i\	.	2c\	.
2E-i\	.	2c\	.
=247	=247	=247	=247
1E-	0r	1B-	0r
1C	.	1c	.
=248	=248	=248	=248
0D	0r	2.F/	0r
.	.	4G/	.
.	.	4A/	.
.	.	4F/	.
.	.	[2B-\	.
=249	=249	=249	=249
1C	0r	2B-\]	0r
.	.	2A/	.
2.BB-/	.	2B-\	.
.	.	[2d\	.
4C/	.	.	.
=250	=250	=250	=250
4D\	0r	4d\]	0r
4E-\	.	4c\	.
2F\	.	2d\	.
2G\	.	2e\	.
[2A\	.	[2f\	.
=251	=251	=251	=251
4A\]	0r	4f\]	0r
4G\	.	4e\	.
4F\	.	4d\	.
4E-\	.	4c\	.
2D\	.	2B-\	.
2C/	.	[2A/	.
=252	=252	=252	=252
1F	0r	2A/]	0r
.	.	1d	.
1E-	.	.	.
.	.	2c\	.
=253	=253	=253	=253
*M3/3%2	*M3/3%2	*M3/3%2	*M3/3%2
*met(3)	*met(3)	*met(3)	*met(3)
3%2D	3%4.B-	3%2d	3%2f
3%4E-	.	3%4G	3%4g
=254	=254	=254	=254
1D	3%4.d	3%2A	3%2f
.	.	3%2F	3%2a
3C/	.	.	.
3%2BB-	.	3%2G	3%2b-
=255	=255	=255	=255
3%2AA	3%4.c	3%2.A	3%2.cc
3%2C	.	.	.
.	.	3B-\	6b-\
.	.	.	6a/
3%2E-	.	3%2c	3%2g
=256	=256	=256	=256
3%4D	3%4.d	3%2F	3%4.f
.	.	3%2B-	.
3%2D	.	3%2A	.
=257	=257	=257	=257
3%4E-	3%4.c	3%2G	3%4g
.	.	3%2g	.
3%2F	.	3%2f	3%2a
=258	=258	=258	=258
3%2.G	3%4.B-	3%4d	3%2.b-
3F\	.	.	3a/
3E\	.	3%2d	3g/
3D\	.	.	3f/
=259	=259	=259	=259
3%4C	3%4.c	3%2G	3%2e
.	.	3%2c	3a/
.	.	.	3g/
3%2C	.	3%2A	3f/
.	.	.	3e/
=260	=260	=260	=260
3%2D	3%2B-	3%2d	3%2d
3%4E	3%4G	3%2B-	3%4g
.	.	3%2e	.
=261	=261	=261	=261
3%2C	3%4.A	3%2e	3%2e
3%4D	.	3%4d	3%4f#i
=262	=262	=262	=262
*M2/1	*M2/1	*M2/1	*M2/1
*met(C|)	*met(C|)	*met(C|)	*met(C|)
0GG	[0G	1B-	1g
.	.	1r	1r
=263	=263	=263	=263
0r	0G]	1.d	1.b-
.	.	4c\	4a/
.	.	4B-\	4g/
=264	=264	=264	=264
0r	0r	2d\	2b-\
.	.	2c\	1a
.	.	1B-	.
.	.	.	2g/
=265	=265	=265	=265
1D	1r	2A/	1a
.	.	2F/	.
1E	1B-	1G	2r
.	.	.	2g/
=266	=266	=266	=266
1D	1d	2A/	1f
.	.	1A	.
1E	1c	.	1g
.	.	2G/	.
=267	=267	=267	=267
2.D\	1d	4A/	2.f/
.	.	4B-\	.
.	.	4c\	.
8C/L	.	4d\	4g/
8BB-/J	.	.	.
1AA	1c	2e\	2a/
.	.	2f\	2a/
=268	=268	=268	=268
2GG/	1B-	2g\	2b-\
1G	.	2d\	2g/
.	1c	2e\	4a/
.	.	.	4g/
2F\	.	2f\	4f/
.	.	.	4e/
=269	=269	=269	=269
2G\	2B-\	2B-\	2d/
2E\	2G/	2c\	1g
1D	1A	1d	.
.	.	.	2f#i/
=270	=270	=270	=270
0GGl	0Gl	0dl	0gl
!!LO:LB:i:g=z
=271||	=271||	=271||	=271||
*>C	*>C	*>C	*>C
*clefF4	*clefGv2	*clefGv2	*clefG2
*k[b-]	*k[b-]	*k[b-]	*k[b-]
*M2/1	*M2/1	*M2/1	*M2/1
*met(C|)	*met(C|)	*met(C|)	*met(C|)
!!section: Tertia pars: Igitur hoc presens carmen musicale
!!!OMD: Tertia pars: Igitur hoc presens carmen musicale
[0D	[0A	[0d	[0f
=272	=272	=272	=272
1D]	1A]	1d]	1f]
1D	1A	1d	1f
=273	=273	=273	=273
1D	1A	1d	1f
1D	1A	1d	1f
=274	=274	=274	=274
0D	0A	0d	0f
=275	=275	=275	=275
0C	0c	0G	0e
=276	=276	=276	=276
0D	0A	0F	0f
=277	=277	=277	=277
1BB-	0B-	0G	1d
1E	.	.	[1g
=278	=278	=278	=278
1F	1A	1A	2g/]
.	.	.	2f/
1D	1F	1B-	[1f
=279	=279	=279	=279
0C	0G	0c	1f]
.	.	.	1e
=280	=280	=280	=280
0D	[0F	0A	0f
=281	=281	=281	=281
0BB-;	0F;]	0B-;	0d;
=282	=282	=282	=282
1GG	1B-	1d	1g
[1GG	[1B-	[1d	[1g
=283	=283	=283	=283
1GG]	1B-]	1d]	1g]
1GG	1B-	1d	1g
=284	=284	=284	=284
0GG	0B-	0d	0g
=285	=285	=285	=285
0D	1A	0d	0f
.	1A	.	.
=286	=286	=286	=286
[0E-	[0G	0B-	[0g
=287	=287	=287	=287
0E-]	0G]	0c	0g]
=288	=288	=288	=288
0D;	0A;	0d;	0f;
=289	=289	=289	=289
1F	1r	0r	0r
1G	1B-	.	.
=290	=290	=290	=290
1A	1c	0r	0r
2F\	1d	.	.
2G\	.	.	.
=291	=291	=291	=291
2E\	1c	0r	0r
2F\	.	.	.
2D\	2B-\	.	.
[2C/	[2A/	.	.
=292	=292	=292	=292
2C/]	2A/]	0r	0r
2BB-/	1G	.	.
1AA	.	.	.
.	2F#i/	.	.
=293	=293	=293	=293
1GG	2.G/	0r	0r
.	4A/	.	.
1G	4B-\	.	.
.	4c\	.	.
.	[2d\	.	.
=294	=294	=294	=294
2F\	2d\]	0r	0r
2E\	1c	.	.
1D	.	.	.
.	2Bni\	.	.
=295	=295	=295	=295
1C	1c	0r	0r
1r	1r	.	.
=296	=296	=296	=296
0E	0c	0G	0g
=297	=297	=297	=297
1D	1.d	1A	1f
[1G	.	[1B-	[1b-
.	2B-\	.	.
=298	=298	=298	=298
1G]	1B-	1B-]	2b-\]
.	.	.	2a/
1C	1c	1e	1g
=299	=299	=299	=299
0D	0A	0d	1g
.	.	.	1f#i
=300	=300	=300	=300
0E-	[0G;	0B-	0g
=301	=301	=301	=301
0C;	0G]	0c;	0e;
=302	=302	=302	=302
0GG	0B-	0d	0g
=303	=303	=303	=303
1GG	1B-	0d	1g
1D	1A	.	1f
=304	=304	=304	=304
0E-i	0G	1B-	0g
.	.	1c	.
=305	=305	=305	=305
0D	0F	1.A	1.a
.	.	2B-\	4g/
.	.	.	4f/
=306	=306	=306	=306
1C	1G	1c	1e
1AA	1A	1c	[1f
=307	=307	=307	=307
0BB-	0D	0G	2f/]
.	.	.	2e/
.	.	.	[1d
=308	=308	=308	=308
0AA	0E	0A	1d]
.	.	.	1c#i
=309	=309	=309	=309
0BB-	[0D	0F	0d
=310	=310	=310	=310
0GG;	0D;]	0G;	0B-;
=311	=311	=311	=311
0GG;	0G;	0B-;	0e-i;
=312	=312	=312	=312
0D;	0F;	0A;	0f;
=313	=313	=313	=313
1GG	0r	1d	1b-
1D	.	1d	1a
=314	=314	=314	=314
1E	1B-	1G	1g
1F	1A	2F/	1cc
.	.	[2f\	.
=315	=315	=315	=315
2G\	1G	2f\]	2b-\
2G\	.	2e\	2b-\
1F	1c	1f	1a
=316	=316	=316	=316
1BB-	2B-\	1f	1dd
.	2B-\	.	.
1F	1A	1f	1cc
=317	=317	=317	=317
1G	1d	1B-	2b-\
.	.	.	2g/
1C	1c	2c\	1a
.	.	2A/	.
=318	=318	=318	=318
1E	2B-\	2B-\	1g
.	2G/	2c\	.
1D	1A	1d	1f
=319	=319	=319	=319
1E	1G	2B-\	1g
.	.	2c\	.
1D	1F	1A	1a
=320	=320	=320	=320
0GG	1G	0d	1.b-
.	1B-	.	.
.	.	.	4a/
.	.	.	4g/
=321	=321	=321	=321
0D;	0A;	0d;	0f;
=322	=322	=322	=322
1.E-	[0Gl	0B-	[0gl
4D\	.	.	.
4C/	.	.	.
=323	=323	=323	=323
2.E-i\	0G_	1r	0g_
4D\	.	.	.
4C/	.	1e-	.
4BB-/	.	.	.
2C/	.	.	.
=324	=324	=324	=324
2BB-/	0G_	2d\	0g_
1C	.	1e-i	.
4BB-/	.	4d\	.
4AA/	.	4c\	.
=325	=325	=325	=325
0GGl	0G]	0dl	0g]
==	==	==	==
*-	*-	*-	*-
!!!RDF**kern: l=long note in original notation
!!!RDF**kern: i=editorial accidental
!!!ENC:	Jesse Rodin 27/08/2004 ; Megan K. Eagen 20/10/2012
!!!END:	2012/11/12/
!!!EED:	Jesse Rodin
!!!EEV:	2013/08/11/
!!!ONB:	Translated from MusicXML and edited on 2013/08/11/ by Craig Sapp
!!muse2ps: C^@{COM}^i2I150v95,95,95,150c180
